F[BALLADE
CUT[Tochter als Faehnrich
    Der goldene Rosenkranz,]
CNR[besetzt mit Perlen ganz,]
REG[Osteuropa, UdSSR, Karpato - Ukraine]
SRC[5, S. 94
    1963 gedruckt in Linz]
KEY[Q1096C 16  G 4/4]
MEL[-5__  1_.23__4__2__  1___.
    5__  4__3__2__1__  2___.
    4__  6__4__4__4__  5__.4_3__
    5__  4__3__2__3__  -7__-6__-5__.
    -5_  1_.23__4__2__  1___. //] >>
FCT[???]
CMT[Melodievergleich zu Q0096A, anderes Lied.  Verzierungen
    (Vorschlaege)]
